X: 1
T: Mickey Callaghan's
M: 12/8
L: 1/8
R: slide
K: Dmaj
dB|:~A3 DFA BAF AFG|AdB AFA d3 d2e|
~f3 g2f e/f/ge d2B|1AFF DFD EFE EFG:|2Aaa f2e d3 d2e||
|:f2e f2e f2e fga|AdA BAF ~A3 ABd|
~e3 e2e efe efg|1f/g/af gfe d3 d2e:|2f/g/af gfe dfe dcB||
